assets/luts/tropical_cinematic.cube
TITLE "Tropical_Cinematic_Vibes"
LUT_3D_SIZE 5
0.000000 0.000000 0.000000
0.217188 0.000000 0.000000
0.500000 0.000000 0.000000
0.796094 0.009297 0.000000
1.000000 0.024500 0.000000
0.000000 0.217188 0.025339
0.217188 0.217188 0.000000
0.500000 0.217187 0.000000
0.796094 0.226484 0.000000
1.000000 0.241687 0.000000
0.000000 0.500000 0.058333
0.161719 0.500000 0.000000
0.500000 0.500000 0.000000
0.796094 0.509297 0.000000
1.000000 0.524500 0.000000
0.013281 0.792109 0.088672
0.123151 0.792109 0.000000
0.453099 0.792109 0.000000
0.796094 0.792109 0.000000
1.000000 0.807312 0.000000
0.035000 1.000000 0.109667
0.105052 1.000000 0.000000
0.435000 1.000000 0.000000
0.764948 1.000000 0.000000
1.000000 1.000000 0.000000
0.000000 0.000000 0.217188
0.217188 0.000000 0.217188
0.500000 0.000000 0.217188
0.796094 0.009297 0.214531
1.000000 0.024500 0.210187
0.000000 0.217188 0.217188
0.217188 0.217188 0.217188
0.500000 0.174766 0.174766
0.796094 0.141641 0.129688
1.000000 0.124266 0.092766
0.000000 0.500000 0.239323
0.135737 0.500000 0.178235
0.500000 0.500000 0.174766
0.796094 0.466875 0.129688
1.000000 0.449500 0.092766
0.013281 0.792109 0.269661
0.067569 0.792109 0.136626
0.358979 0.792109 0.051631
0.796094 0.792109 0.129688
1.000000 0.774734 0.092766
0.035000 1.000000 0.290656
0.035000 1.000000 0.109667
0.273157 1.000000 0.000000
0.694647 1.000000 0.000000
1.000000 1.000000 0.092766
0.000000 0.000000 0.500000
0.217188 0.000000 0.500000
0.500000 0.000000 0.500000
0.796094 0.009297 0.497344
1.000000 0.024500 0.493000
0.000000 0.217188 0.500000
0.174766 0.174766 0.500000
0.500000 0.174766 0.500000
0.796094 0.141641 0.454922
1.000000 0.124266 0.418000
0.000000 0.500000 0.500000
0.174766 0.500000 0.500000
0.500000 0.500000 0.500000
0.796094 0.466875 0.454922
1.000000 0.449500 0.418000
0.013281 0.792109 0.505339
0.067569 0.792109 0.440178
0.431831 0.792109 0.458391
0.796094 0.792109 0.454922
1.000000 0.774734 0.418000
0.035000 1.000000 0.526333
0.035000 1.000000 0.410731
0.391000 1.000000 0.424133
0.697906 1.000000 0.349000
1.000000 1.000000 0.418000
0.013281 0.009297 0.780156
0.230469 0.009297 0.780156
0.513281 0.009297 0.780156
0.796094 0.009297 0.780156
1.000000 0.024500 0.775813
0.013281 0.226484 0.780156
0.145625 0.141641 0.780156
0.470859 0.141641 0.780156
0.796094 0.141641 0.780156
1.000000 0.124266 0.743234
0.013281 0.509297 0.780156
0.145625 0.466875 0.780156
0.470859 0.466875 0.780156
0.796094 0.466875 0.780156
1.000000 0.449500 0.743234
0.013281 0.792109 0.780156
0.145625 0.792109 0.780156
0.470859 0.792109 0.780156
0.796094 0.792109 0.780156
1.000000 0.774734 0.743234
0.035000 1.000000 0.775812
0.134766 1.000000 0.743234
0.391000 1.000000 0.727685
0.755263 1.000000 0.745899
1.000000 1.000000 0.743234
0.035000 0.024500 0.993000
0.252187 0.024500 0.993000
0.535000 0.024500 0.993000
0.817813 0.024500 0.993000
1.000000 0.024500 0.993000
0.035000 0.241687 0.993000
0.134766 0.124266 0.993000
0.460000 0.124266 0.993000
0.785234 0.124266 0.993000
1.000000 0.124266 0.993000
0.035000 0.524500 0.993000
0.134766 0.449500 0.993000
0.460000 0.449500 0.993000
0.785234 0.449500 0.993000
1.000000 0.449500 0.993000
0.035000 0.807313 0.993000
0.134766 0.774734 0.993000
0.460000 0.774734 0.993000
0.785234 0.774734 0.993000
1.000000 0.774734 0.993000
0.035000 1.000000 0.993000
0.134766 1.000000 0.993000
0.460000 1.000000 0.993000
0.785234 1.000000 0.993000
1.000000 1.000000 0.993000
