assets/luts/tropical_cinematic.cube
TITLE "Tropical_Cinematic_Vibes"
LUT_3D_SIZE 33
0.000000 0.000000 0.000000
0.021317 0.000000 0.000000
0.044556 0.000000 0.000000
0.069589 0.000000 0.000000
0.096289 0.000000 0.000000
0.124527 0.000000 0.000000
0.154175 0.000000 0.000000
0.185104 0.000000 0.000000
0.217188 0.000000 0.000000
0.250296 0.000000 0.000000
0.284302 0.000000 0.000000
0.319077 0.000000 0.000000
0.354492 0.000000 0.000000
0.390421 0.000000 0.000000
0.426733 0.000000 0.000000
0.463303 0.000000 0.000000
0.500000 0.000000 0.000000
0.536697 0.000000 0.000000
0.573267 0.000000 0.000000
0.609579 0.000000 0.000000
0.645508 0.000000 0.000000
0.684016 0.002165 0.000000
0.722268 0.004599 0.000000
0.759674 0.006979 0.000000
0.796094 0.009297 0.000000
0.831385 0.011543 0.000000
0.865408 0.013708 0.000000
0.898020 0.015783 0.000000
0.929082 0.017760 0.000000
0.958452 0.019629 0.000000
0.985989 0.021381 0.000000
1.000000 0.023008 0.000000
1.000000 0.024500 0.000000
0.000000 0.021317 0.002487
0.021317 0.021317 0.000000
0.044556 0.021317 0.000000
0.069589 0.021317 0.000000
0.096289 0.021317 0.000000
0.124527 0.021317 0.000000
0.154175 0.021317 0.000000
0.185104 0.021317 0.000000
0.217188 0.021317 0.000000
0.250296 0.021317 0.000000
0.284302 0.021317 0.000000
0.319077 0.021317 0.000000
0.354492 0.021317 0.000000
0.390421 0.021317 0.000000
0.426733 0.021317 0.000000
0.463303 0.021317 0.000000
0.500000 0.021317 0.000000
0.536697 0.021317 0.000000
0.573267 0.021317 0.000000
0.609579 0.021317 0.000000
0.645508 0.021317 0.000000
0.684016 0.023481 0.000000
0.722268 0.025915 0.000000
0.759674 0.028296 0.000000
0.796094 0.030613 0.000000
0.831385 0.032859 0.000000
0.865408 0.035024 0.000000
0.898020 0.037100 0.000000
0.929082 0.039076 0.000000
0.958452 0.040945 0.000000
0.985989 0.042698 0.000000
1.000000 0.044324 0.000000
1.000000 0.045817 0.000000
0.000000 0.044556 0.005198
0.016701 0.044556 0.000000
0.044556 0.044556 0.000000
0.069589 0.044556 0.000000
0.096289 0.044556 0.000000
0.124527 0.044556 0.000000
0.154175 0.044556 0.000000
0.185104 0.044556 0.000000
0.217188 0.044556 0.000000
0.250296 0.044556 0.000000
0.284302 0.044556 0.000000
0.319077 0.044556 0.000000
0.354492 0.044556 0.000000
0.390421 0.044556 0.000000
0.426733 0.044556 0.000000
0.463303 0.044556 0.000000
0.500000 0.044556 0.000000
0.536697 0.044556 0.000000
0.573267 0.044556 0.000000
0.609579 0.044556 0.000000
0.645508 0.044556 0.000000
0.684016 0.046720 0.000000
0.722268 0.049155 0.000000
0.759674 0.051535 0.000000
0.796094 0.053853 0.000000
0.831385 0.056098 0.000000
0.865408 0.058263 0.000000
0.898020 0.060339 0.000000
0.929082 0.062315 0.000000
0.958452 0.064184 0.000000
0.985989 0.065937 0.000000
1.000000 0.067564 0.000000
1.000000 0.069056 0.000000
0.000000 0.069589 0.008119
0.012111 0.069589 0.000000
0.039224 0.069589 0.000000
0.069589 0.069589 0.000000
0.096289 0.069589 0.000000
0.124527 0.069589 0.000000
0.154175 0.069589 0.000000
0.185104 0.069589 0.000000
0.217188 0.069589 0.000000
0.250296 0.069589 0.000000
0.284302 0.069589 0.000000
0.319077 0.069589 0.000000
0.354492 0.069589 0.000000
0.390421 0.069589 0.000000
0.426733 0.069589 0.000000
0.463303 0.069589 0.000000
0.500000 0.069589 0.000000
0.536697 0.069589 0.000000
0.573267 0.069589 0.000000
0.609579 0.069589 0.000000
0.645508 0.069589 0.000000
0.684016 0.071754 0.000000
0.722268 0.074188 0.000000
0.759674 0.076569 0.000000
0.796094 0.078886 0.000000
0.831385 0.081132 0.000000
0.865408 0.083297 0.000000
0.898020 0.085372 0.000000
0.929082 0.087349 0.000000
0.958452 0.089218 0.000000
0.985989 0.090970 0.000000
1.000000 0.092597 0.000000
1.000000 0.094089 0.000000
0.000000 0.096289 0.011234
0.007216 0.096289 0.000000
0.034329 0.096289 0.000000
0.063534 0.096289 0.000000
0.096289 0.096289 0.000000
0.124527 0.096289 0.000000
0.154175 0.096289 0.000000
0.185104 0.096289 0.000000
0.217188 0.096289 0.000000
0.250296 0.096289 0.000000
0.284302 0.096289 0.000000
0.319077 0.096289 0.000000
0.354492 0.096289 0.000000
0.390421 0.096289 0.000000
0.426733 0.096289 0.000000
0.463303 0.096289 0.000000
0.500000 0.096289 0.000000
0.536697 0.096289 0.000000
0.573267 0.096289 0.000000
0.609579 0.096289 0.000000
0.645508 0.096289 0.000000
0.684016 0.098454 0.000000
0.722268 0.100888 0.000000
0.759674 0.103268 0.000000
0.796094 0.105586 0.000000
0.831385 0.107832 0.000000
0.865408 0.109997 0.000000
0.898020 0.112072 0.000000
0.929082 0.114049 0.000000
0.958452 0.115918 0.000000
0.985989 0.117670 0.000000
1.000000 0.119297 0.000000
1.000000 0.120789 0.000000
0.000000 0.124527 0.014528
0.003236 0.124527 0.000000
0.029152 0.124527 0.000000
0.058357 0.124527 0.000000
0.089507 0.124527 0.000000
0.124527 0.124527 0.000000
0.154175 0.124527 0.000000
0.185104 0.124527 0.000000
0.217188 0.124527 0.000000
0.250296 0.124527 0.000000
0.284302 0.124527 0.000000
0.319077 0.124527 0.000000
0.354492 0.124527 0.000000
0.390421 0.124527 0.000000
0.426733 0.124527 0.000000
0.463303 0.124527 0.000000
0.500000 0.124527 0.000000
0.536697 0.124527 0.000000
0.573267 0.124527 0.000000
0.609579 0.124527 0.000000
0.645508 0.124527 0.000000
0.684016 0.126692 0.000000
0.722268 0.129126 0.000000
0.759674 0.131506 0.000000
0.796094 0.133824 0.000000
0.831385 0.136070 0.000000
0.865408 0.138235 0.000000
0.898020 0.140310 0.000000
0.929082 0.142287 0.000000
0.958452 0.144156 0.000000
0.985989 0.145908 0.000000
1.000000 0.147535 0.000000
1.000000 0.149027 0.000000
0.000000 0.154175 0.017987
0.000000 0.154175 0.000223
0.023716 0.154175 0.000000
0.052922 0.154175 0.000000
0.084072 0.154175 0.000000
0.117016 0.154175 0.000000
0.154175 0.154175 0.000000
0.185104 0.154175 0.000000
0.217188 0.154175 0.000000
0.250296 0.154175 0.000000
0.284302 0.154175 0.000000
0.319077 0.154175 0.000000
0.354492 0.154175 0.000000
0.390421 0.154175 0.000000
0.426733 0.154175 0.000000
0.463303 0.154175 0.000000
0.500000 0.154175 0.000000
0.536697 0.154175 0.000000
0.573267 0.154175 0.000000
0.609579 0.154175 0.000000
0.645508 0.154175 0.000000
0.684016 0.156339 0.000000
0.722268 0.158774 0.000000
0.759674 0.161154 0.000000
0.796094 0.163472 0.000000
0.831385 0.165717 0.000000
0.865408 0.167883 0.000000
0.898020 0.169958 0.000000
0.929082 0.171935 0.000000
0.958452 0.173804 0.000000
0.985989 0.175556 0.000000
1.000000 0.177183 0.000000
1.000000 0.178675 0.000000
0.000000 0.185104 0.021596
0.000000 0.185104 0.003832
0.018046 0.185104 0.000000
0.047252 0.185104 0.000000
0.078401 0.185104 0.000000
0.111346 0.185104 0.000000
0.145935 0.185104 0.000000
0.185104 0.185104 0.000000
0.217188 0.185104 0.000000
0.250296 0.185104 0.000000
0.284302 0.185104 0.000000
0.319077 0.185104 0.000000
0.354492 0.185104 0.000000
0.390421 0.185104 0.000000
0.426733 0.185104 0.000000
0.463303 0.185104 0.000000
0.500000 0.185104 0.000000
0.536697 0.185104 0.000000
0.573267 0.185104 0.000000
0.609579 0.185104 0.000000
0.645508 0.185104 0.000000
0.684016 0.187269 0.000000
0.722268 0.189703 0.000000
0.759674 0.192084 0.000000
0.796094 0.194401 0.000000
0.831385 0.196647 0.000000
0.865408 0.198812 0.000000
0.898020 0.200887 0.000000
0.929082 0.202864 0.000000
0.958452 0.204733 0.000000
0.985989 0.206485 0.000000
1.000000 0.208112 0.000000
1.000000 0.209604 0.000000
0.000000 0.217188 0.025339
0.000000 0.217188 0.007575
0.012164 0.217188 0.000000
0.041370 0.217188 0.000000
0.072520 0.217188 0.000000
0.105464 0.217188 0.000000
0.140053 0.217188 0.000000
0.176137 0.217188 0.000000
0.217188 0.217188 0.000000
0.250296 0.217188 0.000000
0.284302 0.217188 0.000000
0.319077 0.217188 0.000000
0.354492 0.217188 0.000000
0.390421 0.217188 0.000000
0.426733 0.217188 0.000000
0.463303 0.217188 0.000000
0.500000 0.217187 0.000000
0.536697 0.217188 0.000000
0.573267 0.217187 0.000000
0.609579 0.217187 0.000000
0.645508 0.217187 0.000000
0.684016 0.219352 0.000000
0.722268 0.221786 0.000000
0.759674 0.224167 0.000000
0.796094 0.226484 0.000000
0.831385 0.228730 0.000000
0.865408 0.230895 0.000000
0.898020 0.232971 0.000000
0.929082 0.234947 0.000000
0.958452 0.236816 0.000000
0.985989 0.238569 0.000000
1.000000 0.240195 0.000000
1.000000 0.241687 0.000000
0.000000 0.250296 0.029201
0.000000 0.250296 0.011437
0.007929 0.250296 0.000000
0.035300 0.250296 0.000000
0.066450 0.250296 0.000000
0.099394 0.250296 0.000000
0.133983 0.250296 0.000000
0.170067 0.250296 0.000000
0.207498 0.250296 0.000000
0.250296 0.250296 0.000000
0.284302 0.250296 0.000000
0.319077 0.250296 0.000000
0.354492 0.250296 0.000000
0.390421 0.250296 0.000000
0.426733 0.250296 0.000000
0.463303 0.250296 0.000000
0.500000 0.250296 0.000000
0.536697 0.250296 0.000000
0.573267 0.250296 0.000000
0.609579 0.250296 0.000000
0.645508 0.250296 0.000000
0.684016 0.252461 0.000000
0.722268 0.254895 0.000000
0.759674 0.257275 0.000000
0.796094 0.259593 0.000000
0.831385 0.261839 0.000000
0.865408 0.264004 0.000000
0.898020 0.266079 0.000000
0.929082 0.268056 0.000000
0.958452 0.269925 0.000000
0.985989 0.271677 0.000000
1.000000 0.273304 0.000000
1.000000 0.274796 0.000000
0.000000 0.284302 0.033169
0.000000 0.284302 0.015405
0.003961 0.284302 0.000000
0.029065 0.284302 0.000000
0.060215 0.284302 0.000000
0.093159 0.284302 0.000000
0.127749 0.284302 0.000000
0.163833 0.284302 0.000000
0.201263 0.284302 0.000000
0.239890 0.284302 0.000000
0.284302 0.284302 0.000000
0.319077 0.284302 0.000000
0.354492 0.284302 0.000000
0.390421 0.284302 0.000000
0.426733 0.284302 0.000000
0.463303 0.284302 0.000000
0.500000 0.284302 0.000000
0.536697 0.284302 0.000000
0.573267 0.284302 0.000000
0.609579 0.284302 0.000000
0.645508 0.284302 0.000000
0.684016 0.286466 0.000000
0.722268 0.288901 0.000000
0.759674 0.291281 0.000000
0.796094 0.293599 0.000000
0.831385 0.295844 0.000000
0.865408 0.298010 0.000000
0.898020 0.300085 0.000000
0.929082 0.302062 0.000000
0.958452 0.303931 0.000000
0.985989 0.305683 0.000000
1.000000 0.307310 0.000000
1.000000 0.308802 0.000000
0.000000 0.319077 0.037226
0.000000 0.319077 0.019462
0.000000 0.319077 0.000096
0.022690 0.319077 0.000000
0.053840 0.319077 0.000000
0.086784 0.319077 0.000000
0.121373 0.319077 0.000000
0.157458 0.319077 0.000000
0.194888 0.319077 0.000000
0.233515 0.319077 0.000000
0.273188 0.319077 0.000000
0.319077 0.319077 0.000000
0.354492 0.319077 0.000000
0.390421 0.319077 0.000000
0.426733 0.319077 0.000000
0.463303 0.319077 0.000000
0.500000 0.319077 0.000000
0.536697 0.319077 0.000000
0.573267 0.319077 0.000000
0.609579 0.319077 0.000000
0.645508 0.319077 0.000000
0.684016 0.321241 0.000000
0.722268 0.323675 0.000000
0.759674 0.326056 0.000000
0.796094 0.328373 0.000000
0.831385 0.330619 0.000000
0.865408 0.332784 0.000000
0.898020 0.334860 0.000000
0.929082 0.336836 0.000000
0.958452 0.338705 0.000000
0.985989 0.340458 0.000000
1.000000 0.342084 0.000000
1.000000 0.343577 0.000000
0.000000 0.354492 0.041357
0.000000 0.354492 0.023594
0.000000 0.354492 0.004228
0.016634 0.354492 0.000000
0.047347 0.354492 0.000000
0.080291 0.354492 0.000000
0.114880 0.354492 0.000000
0.150965 0.354492 0.000000
0.188395 0.354492 0.000000
0.227022 0.354492 0.000000
0.266695 0.354492 0.000000
0.307266 0.354492 0.000000
0.354492 0.354492 0.000000
0.390421 0.354492 0.000000
0.426733 0.354492 0.000000
0.463303 0.354492 0.000000
0.500000 0.354492 0.000000
0.536697 0.354492 0.000000
0.573267 0.354492 0.000000
0.609579 0.354492 0.000000
0.645508 0.354492 0.000000
0.684016 0.356657 0.000000
0.722268 0.359091 0.000000
0.759674 0.361471 0.000000
0.796094 0.363789 0.000000
0.831385 0.366035 0.000000
0.865408 0.368200 0.000000
0.898020 0.370275 0.000000
0.929082 0.372252 0.000000
0.958452 0.374121 0.000000
0.985989 0.375873 0.000000
1.000000 0.377500 0.000000
1.000000 0.378992 0.000000
0.000000 0.390421 0.045549
0.000000 0.390421 0.027785
0.000000 0.390421 0.008419
0.012442 0.390421 0.000000
0.040760 0.390421 0.000000
0.073704 0.390421 0.000000
0.108294 0.390421 0.000000
0.144378 0.390421 0.000000
0.181808 0.390421 0.000000
0.220435 0.390421 0.000000
0.260108 0.390421 0.000000
0.300679 0.390421 0.000000
0.341997 0.390421 0.000000
0.390421 0.390421 0.000000
0.426733 0.390421 0.000000
0.463303 0.390421 0.000000
0.500000 0.390421 0.000000
0.536697 0.390421 0.000000
0.573267 0.390421 0.000000
0.609579 0.390421 0.000000
0.645508 0.390421 0.000000
0.684016 0.392585 0.000000
0.722268 0.395019 0.000000
0.759674 0.397400 0.000000
0.796094 0.399717 0.000000
0.831385 0.401963 0.000000
0.865408 0.404128 0.000000
0.898020 0.406204 0.000000
0.929082 0.408180 0.000000
0.958452 0.410049 0.000000
0.985989 0.411802 0.000000
1.000000 0.413428 0.000000
1.000000 0.414921 0.000000
0.000000 0.426733 0.049786
0.000000 0.426733 0.032022
0.000000 0.426733 0.012656
0.008205 0.426733 0.000000
0.034103 0.426733 0.000000
0.067047 0.426733 0.000000
0.101636 0.426733 0.000000
0.137721 0.426733 0.000000
0.175151 0.426733 0.000000
0.213778 0.426733 0.000000
0.253451 0.426733 0.000000
0.294022 0.426733 0.000000
0.335340 0.426733 0.000000
0.377256 0.426733 0.000000
0.426733 0.426733 0.000000
0.463303 0.426733 0.000000
0.500000 0.426733 0.000000
0.536697 0.426733 0.000000
0.573267 0.426733 0.000000
0.609579 0.426733 0.000000
0.645508 0.426733 0.000000
0.684016 0.428898 0.000000
0.722268 0.431332 0.000000
0.759674 0.433713 0.000000
0.796094 0.436030 0.000000
0.831385 0.438276 0.000000
0.865408 0.440441 0.000000
0.898020 0.442517 0.000000
0.929082 0.444493 0.000000
0.958452 0.446362 0.000000
0.985989 0.448115 0.000000
1.000000 0.449741 0.000000
1.000000 0.451233 0.000000
0.000000 0.463303 0.054052
0.000000 0.463303 0.036288
0.000000 0.463303 0.016922
0.003939 0.463303 0.000000
0.027398 0.463303 0.000000
0.060343 0.463303 0.000000
0.094932 0.463303 0.000000
0.131016 0.463303 0.000000
0.168447 0.463303 0.000000
0.207073 0.463303 0.000000
0.246747 0.463303 0.000000
0.287317 0.463303 0.000000
0.328635 0.463303 0.000000
0.370552 0.463303 0.000000
0.426733 0.463303 0.000000
0.463303 0.463303 0.000000
0.500000 0.463303 0.000000
0.536697 0.463303 0.000000
0.573267 0.463303 0.000000
0.609579 0.463303 0.000000
0.645508 0.463303 0.000000
0.684016 0.465467 0.000000
0.722268 0.467901 0.000000
0.759674 0.470282 0.000000
0.796094 0.472599 0.000000
0.831385 0.474845 0.000000
0.865408 0.477010 0.000000
0.898020 0.479086 0.000000
0.929082 0.481062 0.000000
0.958452 0.482931 0.000000
0.985989 0.484684 0.000000
1.000000 0.486310 0.000000
1.000000 0.487803 0.000000
0.000000 0.500000 0.058333
0.000000 0.500000 0.040570
0.000000 0.500000 0.021204
0.000000 0.500000 0.000342
0.021908 0.500000 0.000000
0.053615 0.500000 0.000000
0.088204 0.500000 0.000000
0.124288 0.500000 0.000000
0.161719 0.500000 0.000000
0.200345 0.500000 0.000000
0.240019 0.500000 0.000000
0.280589 0.500000 0.000000
0.321908 0.500000 0.000000
0.363824 0.500000 0.000000
0.406189 0.500000 0.000000
0.463303 0.500000 0.000000
0.500000 0.500000 0.000000
0.536697 0.500000 0.000000
0.573267 0.500000 0.000000
0.609579 0.500000 0.000000
0.645508 0.500000 0.000000
0.684016 0.502165 0.000000
0.722268 0.504599 0.000000
0.759674 0.506979 0.000000
0.796094 0.509297 0.000000
0.831385 0.511543 0.000000
0.865408 0.513708 0.000000
0.898020 0.515783 0.000000
0.929082 0.517760 0.000000
0.958452 0.519629 0.000000
0.985989 0.521381 0.000000
1.000000 0.523008 0.000000
1.000000 0.524500 0.000000
0.000000 0.536697 0.062615
0.000000 0.536697 0.044851
0.000000 0.536697 0.025485
0.000000 0.536697 0.004624
0.017626 0.536697 0.000000
0.046887 0.536697 0.000000
0.081476 0.536697 0.000000
0.117561 0.536697 0.000000
0.154991 0.536697 0.000000
0.193618 0.536697 0.000000
0.233291 0.536697 0.000000
0.273861 0.536697 0.000000
0.315180 0.536697 0.000000
0.357096 0.536697 0.000000
0.399461 0.536697 0.000000
0.442125 0.536697 0.000000
0.500000 0.536697 0.000000
0.536697 0.536697 0.000000
0.573267 0.536697 0.000000
0.609579 0.536697 0.000000
0.645508 0.536697 0.000000
0.684016 0.538862 0.000000
0.722268 0.541296 0.000000
0.759674 0.543677 0.000000
0.796094 0.545994 0.000000
0.831385 0.548240 0.000000
0.865408 0.550405 0.000000
0.898020 0.552480 0.000000
0.929082 0.554457 0.000000
0.958452 0.556326 0.000000
0.985989 0.558078 0.000000
1.000000 0.559705 0.000000
1.000000 0.561197 0.000000
0.000000 0.573267 0.066881
0.000000 0.573267 0.049117
0.000000 0.573267 0.029751
0.000000 0.573267 0.008890
0.013360 0.573267 0.000000
0.040183 0.573267 0.000000
0.074772 0.573267 0.000000
0.110856 0.573267 0.000000
0.148287 0.573267 0.000000
0.186913 0.573267 0.000000
0.226587 0.573267 0.000000
0.267157 0.573267 0.000000
0.308475 0.573267 0.000000
0.350392 0.573267 0.000000
0.392757 0.573267 0.000000
0.435421 0.573267 0.000000
0.478234 0.573267 0.000000
0.536697 0.573267 0.000000
0.573267 0.573267 0.000000
0.609579 0.573267 0.000000
0.645508 0.573267 0.000000
0.684016 0.575431 0.000000
0.722268 0.577865 0.000000
0.759674 0.580246 0.000000
0.796094 0.582563 0.000000
0.831385 0.584809 0.000000
0.865408 0.586974 0.000000
0.898020 0.589050 0.000000
0.929082 0.591026 0.000000
0.958452 0.592895 0.000000
0.985989 0.594648 0.000000
1.000000 0.596274 0.000000
1.000000 0.597767 0.000000
0.000000 0.609579 0.071118
0.000000 0.609579 0.053354
0.000000 0.609579 0.033988
0.000000 0.609579 0.013127
0.009123 0.609579 0.000000
0.033525 0.609579 0.000000
0.068114 0.609579 0.000000
0.104199 0.609579 0.000000
0.141629 0.609579 0.000000
0.180256 0.609579 0.000000
0.219929 0.609579 0.000000
0.260500 0.609579 0.000000
0.301818 0.609579 0.000000
0.343734 0.609579 0.000000
0.386099 0.609579 0.000000
0.428763 0.609579 0.000000
0.471577 0.609579 0.000000
0.514391 0.609579 0.000000
0.573267 0.609579 0.000000
0.609579 0.609579 0.000000
0.645508 0.609579 0.000000
0.684016 0.611744 0.000000
0.722268 0.614178 0.000000
0.759674 0.616559 0.000000
0.796094 0.618876 0.000000
0.831385 0.621122 0.000000
0.865408 0.623287 0.000000
0.898020 0.625363 0.000000
0.929082 0.627339 0.000000
0.958452 0.629208 0.000000
0.985989 0.630961 0.000000
1.000000 0.632587 0.000000
1.000000 0.634079 0.000000
0.000000 0.645508 0.075309
0.000000 0.645508 0.057545
0.000000 0.645508 0.038180
0.000000 0.645508 0.017318
0.004932 0.645508 0.000000
0.028463 0.645508 0.000000
0.061528 0.645508 0.000000
0.097612 0.645508 0.000000
0.135042 0.645508 0.000000
0.173669 0.645508 0.000000
0.213342 0.645508 0.000000
0.253913 0.645508 0.000000
0.295231 0.645508 0.000000
0.337148 0.645508 0.000000
0.379513 0.645508 0.000000
0.422177 0.645508 0.000000
0.464990 0.645508 0.000000
0.507804 0.645508 0.000000
0.550468 0.645508 0.000000
0.609579 0.645508 0.000000
0.645508 0.645508 0.000000
0.684016 0.647672 0.000000
0.722268 0.650107 0.000000
0.759674 0.652487 0.000000
0.796094 0.654805 0.000000
0.831385 0.657051 0.000000
0.865408 0.659216 0.000000
0.898020 0.661291 0.000000
0.929082 0.663268 0.000000
0.958452 0.665137 0.000000
0.985989 0.666889 0.000000
1.000000 0.668516 0.000000
1.000000 0.670008 0.000000
0.003092 0.683088 0.078823
0.003092 0.683088 0.061059
0.003092 0.683088 0.041693
0.003092 0.683088 0.020832
0.003892 0.683088 0.000000
0.027424 0.683088 0.000000
0.058127 0.683088 0.000000
0.094211 0.683088 0.000000
0.131642 0.683088 0.000000
0.170268 0.683088 0.000000
0.209942 0.683088 0.000000
0.250512 0.683088 0.000000
0.291831 0.683088 0.000000
0.333747 0.683088 0.000000
0.376112 0.683088 0.000000
0.418776 0.683088 0.000000
0.461590 0.683088 0.000000
0.504403 0.683088 0.000000
0.547067 0.683088 0.000000
0.589432 0.683088 0.000000
0.648600 0.683088 0.000000
0.684016 0.683088 0.000000
0.722268 0.685522 0.000000
0.759674 0.687903 0.000000
0.796094 0.690220 0.000000
0.831385 0.692466 0.000000
0.865408 0.694631 0.000000
0.898020 0.696707 0.000000
0.929082 0.698683 0.000000
0.958452 0.700552 0.000000
0.985989 0.702305 0.000000
1.000000 0.703931 0.000000
1.000000 0.705423 0.000000
0.006570 0.720297 0.082184
0.006570 0.720297 0.064420
0.006570 0.720297 0.045054
0.006570 0.720297 0.024193
0.006570 0.720297 0.001943
0.026844 0.720297 0.000000
0.055229 0.720297 0.000000
0.091314 0.720297 0.000000
0.128744 0.720297 0.000000
0.167371 0.720297 0.000000
0.207044 0.720297 0.000000
0.247614 0.720297 0.000000
0.288933 0.720297 0.000000
0.330849 0.720297 0.000000
0.373214 0.720297 0.000000
0.415878 0.720297 0.000000
0.458692 0.720297 0.000000
0.501505 0.720297 0.000000
0.544170 0.720297 0.000000
0.586535 0.720297 0.000000
0.628451 0.720297 0.000000
0.687493 0.720297 0.000000
0.722268 0.720297 0.000000
0.759674 0.722678 0.000000
0.796094 0.724995 0.000000
0.831385 0.727241 0.000000
0.865408 0.729406 0.000000
0.898020 0.731481 0.000000
0.929082 0.733458 0.000000
0.958452 0.735327 0.000000
0.985989 0.737079 0.000000
1.000000 0.738706 0.000000
1.000000 0.740198 0.000000
0.009970 0.756683 0.085471
0.009970 0.756683 0.067708
0.009970 0.756683 0.048342
0.009970 0.756683 0.027480
0.009970 0.756683 0.005230
0.026277 0.756683 0.000000
0.052395 0.756683 0.000000
0.088480 0.756683 0.000000
0.125910 0.756683 0.000000
0.164537 0.756683 0.000000
0.204210 0.756683 0.000000
0.244781 0.756683 0.000000
0.286099 0.756683 0.000000
0.328015 0.756683 0.000000
0.370380 0.756683 0.000000
0.413044 0.756683 0.000000
0.455858 0.756683 0.000000
0.498672 0.756683 0.000000
0.541336 0.756683 0.000000
0.583701 0.756683 0.000000
0.625617 0.756683 0.000000
0.666935 0.756683 0.000000
0.725669 0.756683 0.000000
0.759674 0.756683 0.000000
0.796094 0.759001 0.000000
0.831385 0.761247 0.000000
0.865408 0.763412 0.000000
0.898020 0.765487 0.000000
0.929082 0.767464 0.000000
0.958452 0.769333 0.000000
0.985989 0.771085 0.000000
1.000000 0.772712 0.000000
1.000000 0.774204 0.000000
0.013281 0.792109 0.088672
0.013281 0.792109 0.070908
0.013281 0.792109 0.051542
0.013281 0.792109 0.030681
0.013281 0.792109 0.008431
0.025726 0.792109 0.000000
0.050432 0.792109 0.000000
0.085721 0.792109 0.000000
0.123151 0.792109 0.000000
0.161778 0.792109 0.000000
0.201451 0.792109 0.000000
0.242022 0.792109 0.000000
0.283340 0.792109 0.000000
0.325256 0.792109 0.000000
0.367621 0.792109 0.000000
0.410285 0.792109 0.000000
0.453099 0.792109 0.000000
0.495913 0.792109 0.000000
0.538577 0.792109 0.000000
0.580942 0.792109 0.000000
0.622858 0.792109 0.000000
0.664176 0.792109 0.000000
0.704747 0.792109 0.000000
0.762985 0.792109 0.000000
0.796094 0.792109 0.000000
0.831385 0.794355 0.000000
0.865408 0.796520 0.000000
0.898020 0.798596 0.000000
0.929082 0.800572 0.000000
0.958452 0.802441 0.000000
0.985989 0.804194 0.000000
1.000000 0.805820 0.000000
1.000000 0.807312 0.000000
0.016490 0.826438 0.091773
0.016490 0.826438 0.074009
0.016490 0.826438 0.054644
0.016490 0.826438 0.033782
0.016490 0.826438 0.011532
0.025191 0.826438 0.000000
0.049897 0.826438 0.000000
0.083047 0.826438 0.000000
0.120477 0.826438 0.000000
0.159104 0.826438 0.000000
0.198777 0.826438 0.000000
0.239348 0.826438 0.000000
0.280666 0.826438 0.000000
0.322583 0.826438 0.000000
0.364948 0.826438 0.000000
0.407612 0.826438 0.000000
0.450425 0.826438 0.000000
0.493239 0.826438 0.000000
0.535903 0.826438 0.000000
0.578268 0.826438 0.000000
0.620184 0.826438 0.000000
0.661503 0.826438 0.000000
0.702073 0.826438 0.000000
0.741747 0.826438 0.000000
0.799302 0.826438 0.000000
0.831385 0.826438 0.000000
0.865408 0.828603 0.000000
0.898020 0.830679 0.000000
0.929082 0.832655 0.000000
0.958452 0.834524 0.000000
0.985989 0.836277 0.000000
1.000000 0.837903 0.000000
1.000000 0.839396 0.000000
0.019583 0.859533 0.094763
0.019583 0.859533 0.076999
0.019583 0.859533 0.057633
0.019583 0.859533 0.036772
0.019583 0.859533 0.014522
0.024675 0.859533 0.000000
0.049382 0.859533 0.000000
0.080470 0.859533 0.000000
0.117900 0.859533 0.000000
0.156527 0.859533 0.000000
0.196200 0.859533 0.000000
0.236771 0.859533 0.000000
0.278089 0.859533 0.000000
0.320005 0.859533 0.000000
0.362370 0.859533 0.000000
0.405034 0.859533 0.000000
0.447848 0.859533 0.000000
0.490662 0.859533 0.000000
0.533326 0.859533 0.000000
0.575691 0.859533 0.000000
0.617607 0.859533 0.000000
0.658925 0.859533 0.000000
0.699496 0.859533 0.000000
0.739169 0.859533 0.000000
0.802395 0.859533 0.000000
0.834478 0.859533 0.000000
0.865408 0.859533 0.000000
0.898020 0.861608 0.000000
0.929082 0.863585 0.000000
