assets/luts/tropical_cinematic.cube
TITLE "Tropical_Cinematic_Vibes"
LUT_3D_SIZE 9
0.000000 0.000000 0.000000
0.096289 0.000000 0.000000
0.217188 0.000000 0.000000
0.354492 0.000000 0.000000
0.500000 0.000000 0.000000
0.645508 0.000000 0.000000
0.796094 0.009297 0.000000
0.929082 0.017760 0.000000
1.000000 0.024500 0.000000
0.000000 0.096289 0.011234
0.096289 0.096289 0.000000
0.217188 0.096289 0.000000
0.354492 0.096289 0.000000
0.500000 0.096289 0.000000
0.645508 0.096289 0.000000
0.796094 0.105586 0.000000
0.929082 0.114049 0.000000
1.000000 0.120789 0.000000
0.000000 0.217188 0.025339
0.072520 0.217188 0.000000
0.217188 0.217188 0.000000
0.354492 0.217188 0.000000
0.500000 0.217187 0.000000
0.645508 0.217187 0.000000
0.796094 0.226484 0.000000
0.929082 0.234947 0.000000
1.000000 0.241687 0.000000
0.000000 0.354492 0.041357
0.047347 0.354492 0.000000
0.188395 0.354492 0.000000
0.354492 0.354492 0.000000
0.500000 0.354492 0.000000
0.645508 0.354492 0.000000
0.796094 0.363789 0.000000
0.929082 0.372252 0.000000
1.000000 0.378992 0.000000
0.000000 0.500000 0.058333
0.021908 0.500000 0.000000
0.161719 0.500000 0.000000
0.321908 0.500000 0.000000
0.500000 0.500000 0.000000
0.645508 0.500000 0.000000
0.796094 0.509297 0.000000
0.929082 0.517760 0.000000
1.000000 0.524500 0.000000
0.000000 0.645508 0.075309
0.004932 0.645508 0.000000
0.135042 0.645508 0.000000
0.295231 0.645508 0.000000
0.464990 0.645508 0.000000
0.645508 0.645508 0.000000
0.796094 0.654805 0.000000
0.929082 0.663268 0.000000
1.000000 0.670008 0.000000
0.013281 0.792109 0.088672
0.013281 0.792109 0.008431
0.123151 0.792109 0.000000
0.283340 0.792109 0.000000
0.453099 0.792109 0.000000
0.622858 0.792109 0.000000
0.796094 0.792109 0.000000
0.929082 0.800572 0.000000
1.000000 0.807312 0.000000
0.025371 0.921471 0.100359
0.025371 0.921471 0.020118
0.113076 0.921471 0.000000
0.273265 0.921471 0.000000
0.443024 0.921471 0.000000
0.612783 0.921471 0.000000
0.772972 0.921471 0.000000
0.929082 0.921471 0.000000
1.000000 0.928211 0.000000
0.035000 1.000000 0.109667
0.035000 1.000000 0.029426
0.105052 1.000000 0.000000
0.265241 1.000000 0.000000
0.435000 1.000000 0.000000
0.604759 1.000000 0.000000
0.764948 1.000000 0.000000
0.905996 1.000000 0.000000
1.000000 1.000000 0.000000
0.000000 0.000000 0.096289
0.096289 0.000000 0.096289
0.217188 0.000000 0.096289
0.354492 0.000000 0.096289
0.500000 0.000000 0.096289
0.645508 0.000000 0.096289
0.796094 0.009297 0.093633
0.929082 0.017760 0.091215
1.000000 0.024500 0.089289
0.000000 0.096289 0.096289
0.096289 0.096289 0.096289
0.217188 0.078154 0.078154
0.354492 0.057559 0.057559
0.500000 0.035732 0.035732
0.645508 0.013906 0.013906
0.796094 0.009297 0.000000
0.929082 0.017760 0.000000
1.000000 0.024500 0.000000
0.000000 0.217188 0.105579
0.061470 0.217188 0.079637
0.217188 0.217188 0.078154
0.354492 0.196592 0.057559
0.500000 0.174766 0.035732
0.645508 0.152939 0.013906
0.796094 0.147152 0.000000
0.929082 0.153076 0.000000
1.000000 0.158280 0.000000
0.000000 0.354492 0.121598
0.021927 0.354492 0.060726
0.142626 0.354492 0.021927
0.354492 0.354492 0.057559
0.500000 0.332666 0.035732
0.645508 0.310840 0.013906
0.796094 0.303715 0.000000
0.929082 0.306755 0.000000
1.000000 0.310214 0.000000
0.000000 0.500000 0.138574
0.000000 0.500000 0.058333
0.083023 0.500000 0.000000
0.281418 0.500000 0.000000
0.500000 0.500000 0.035732
0.645508 0.478174 0.013906
0.796094 0.469631 0.000000
0.929082 0.469615 0.000000
1.000000 0.471226 0.000000
0.000000 0.645508 0.155550
0.000000 0.645508 0.075309
0.047434 0.645508 0.000000
0.235707 0.645508 0.000000
0.435228 0.645508 0.000000
0.645508 0.645508 0.013906
0.796094 0.635547 0.000000
0.929082 0.632476 0.000000
1.000000 0.632237 0.000000
0.013281 0.792109 0.168913
0.013281 0.792109 0.088672
0.036832 0.792109 0.000000
0.213253 0.792109 0.000000
0.406822 0.792109 0.000000
0.600391 0.792109 0.000000
0.796094 0.792109 0.000000
0.929082 0.786155 0.000000
1.000000 0.784171 0.000000
0.025371 0.921471 0.180600
0.025371 0.921471 0.100359
0.032702 0.921471 0.000000
0.196852 0.921471 0.000000
0.386855 0.921471 0.000000
0.576859 0.921471 0.000000
0.756151 0.921471 0.000000
0.929082 0.921471 0.000000
1.000000 0.917951 0.000000
0.035000 1.000000 0.189908
0.035000 1.000000 0.109667
0.035000 1.000000 0.000000
0.185000 1.000000 0.000000
0.372847 1.000000 0.000000
0.560693 1.000000 0.000000
0.737950 1.000000 0.000000
0.894027 1.000000 0.000000
1.000000 1.000000 0.000000
0.000000 0.000000 0.217188
0.096289 0.000000 0.217188
0.217188 0.000000 0.217188
0.354492 0.000000 0.217187
0.500000 0.000000 0.217188
0.645508 0.000000 0.217187
0.796094 0.009297 0.214531
0.929082 0.017760 0.212113
1.000000 0.024500 0.210187
0.000000 0.096289 0.217188
0.078154 0.078154 0.217188
0.217188 0.078154 0.217188
0.354492 0.057559 0.196592
0.500000 0.035732 0.174766
0.645508 0.013906 0.152939
0.796094 0.009297 0.135199
0.929082 0.017760 0.130242
1.000000 0.024500 0.126780
0.000000 0.217188 0.217188
0.078154 0.217188 0.217188
0.217188 0.217188 0.217188
0.354492 0.196592 0.196592
0.500000 0.174766 0.174766
0.645508 0.152939 0.152939
0.796094 0.141641 0.129688
0.929082 0.131969 0.109135
1.000000 0.124266 0.092766
0.000000 0.354492 0.222347
0.021927 0.354492 0.190490
0.177644 0.354492 0.198276
0.354492 0.354492 0.196592
0.500000 0.332666 0.174766
0.645508 0.310840 0.152939
0.796094 0.299541 0.129688
0.929082 0.289869 0.109135
1.000000 0.282166 0.092766
0.000000 0.500000 0.239323
0.000000 0.500000 0.183112
0.135737 0.500000 0.178235
0.275279 0.500000 0.135737
0.500000 0.500000 0.174766
0.645508 0.478174 0.152939
0.796094 0.466875 0.129688
0.929082 0.457203 0.109135
1.000000 0.449500 0.092766
0.000000 0.645508 0.256299
0.000000 0.645508 0.193721
0.093831 0.645508 0.158194
0.199014 0.645508 0.093831
0.417663 0.645508 0.093831
0.645508 0.645508 0.152939
0.796094 0.634209 0.129688
0.929082 0.624537 0.109135
1.000000 0.616834 0.092766
0.013281 0.792109 0.269661
0.013281 0.792109 0.203551
0.067569 0.792109 0.136626
0.140329 0.792109 0.051631
0.358979 0.792109 0.051631
0.577628 0.792109 0.051631
0.796094 0.792109 0.129688
0.929082 0.782438 0.109135
1.000000 0.774734 0.092766
0.025371 0.921471 0.281348
0.025371 0.921471 0.213122
0.044840 0.921471 0.117556
0.089052 0.921471 0.014395
0.307702 0.921471 0.014395
0.526351 0.921471 0.014395
0.732675 0.921471 0.014395
0.929082 0.921471 0.109135
1.000000 0.913768 0.092766
0.035000 1.000000 0.290656
0.035000 1.000000 0.221150
0.035000 1.000000 0.109667
0.064499 1.000000 0.000000
0.273157 1.000000 0.000000
0.490015 1.000000 0.000000
0.694647 1.000000 0.000000
0.874829 1.000000 0.000000
1.000000 1.000000 0.092766
0.000000 0.000000 0.354492
0.096289 0.000000 0.354492
0.217188 0.000000 0.354492
0.354492 0.000000 0.354492
0.500000 0.000000 0.354492
0.645508 0.000000 0.354492
0.796094 0.009297 0.351836
0.929082 0.017760 0.349418
1.000000 0.024500 0.347492
0.000000 0.096289 0.354492
0.057559 0.057559 0.354492
0.196592 0.057559 0.354492
0.354492 0.057559 0.354492
0.500000 0.035732 0.332666
0.645508 0.013906 0.310840
0.796094 0.009297 0.291761
0.929082 0.017760 0.283921
1.000000 0.024500 0.278714
0.000000 0.217188 0.354492
0.057559 0.196592 0.354492
0.196592 0.196592 0.354492
0.354492 0.196592 0.354492
0.500000 0.174766 0.332666
0.645508 0.152939 0.310840
0.796094 0.141641 0.287588
0.929082 0.131969 0.267035
1.000000 0.124266 0.250666
0.000000 0.354492 0.354492
0.057559 0.354492 0.354492
0.196592 0.354492 0.354492
0.354492 0.354492 0.354492
0.500000 0.332666 0.332666
0.645508 0.310840 0.310840
0.796094 0.299541 0.287588
0.929082 0.289869 0.267035
1.000000 0.282166 0.250666
0.000000 0.500000 0.354492
0.000000 0.500000 0.324823
0.135737 0.500000 0.325608
0.312586 0.500000 0.334451
0.500000 0.500000 0.332666
0.645508 0.478174 0.310840
0.796094 0.466875 0.287588
0.929082 0.457203 0.267035
1.000000 0.449500 0.250666
0.000000 0.645508 0.370719
0.000000 0.645508 0.328202
0.093831 0.645508 0.305567
0.270680 0.645508 0.314410
0.420611 0.645508 0.270680
0.645508 0.645508 0.310840
0.796094 0.634209 0.287588
0.929082 0.624537 0.267035
1.000000 0.616834 0.250666
0.013281 0.792109 0.384082
0.013281 0.792109 0.334020
0.067569 0.792109 0.284000
0.244417 0.792109 0.292842
0.361926 0.792109 0.228480
0.580576 0.792109 0.228480
0.796094 0.792109 0.287588
0.929082 0.782438 0.267035
1.000000 0.774734 0.250666
0.025371 0.921471 0.395769
0.025371 0.921471 0.341188
0.044840 0.921471 0.264930
0.221688 0.921471 0.273772
0.310649 0.921471 0.191243
0.529299 0.921471 0.191243
0.735622 0.921471 0.191243
0.929082 0.921471 0.267035
1.000000 0.913768 0.250666
0.035000 1.000000 0.405077
0.035000 1.000000 0.347762
0.035000 1.000000 0.255833
0.203586 1.000000 0.258584
0.269810 1.000000 0.161586
0.488460 1.000000 0.161586
0.694783 1.000000 0.161586
0.876453 1.000000 0.161586
1.000000 1.000000 0.250666
0.000000 0.000000 0.500000
0.096289 0.000000 0.500000
0.217188 0.000000 0.500000
0.354492 0.000000 0.500000
0.500000 0.000000 0.500000
0.645508 0.000000 0.500000
0.796094 0.009297 0.497344
0.929082 0.017760 0.494926
1.000000 0.024500 0.493000
0.000000 0.096289 0.500000
0.035732 0.035732 0.500000
0.174766 0.035732 0.500000
0.332666 0.035732 0.500000
0.500000 0.035732 0.500000
0.645508 0.013906 0.478174
0.796094 0.009297 0.457678
0.929082 0.017760 0.446781
1.000000 0.024500 0.439726
0.000000 0.217188 0.500000
0.035732 0.174766 0.500000
0.174766 0.174766 0.500000
0.332666 0.174766 0.500000
0.500000 0.174766 0.500000
0.645508 0.152939 0.478174
0.796094 0.141641 0.454922
0.929082 0.131969 0.434369
1.000000 0.124266 0.418000
0.000000 0.354492 0.500000
0.035732 0.332666 0.500000
0.174766 0.332666 0.500000
0.332666 0.332666 0.500000
0.500000 0.332666 0.500000
0.645508 0.310840 0.478174
0.796094 0.299541 0.454922
0.929082 0.289869 0.434369
1.000000 0.282166 0.418000
0.000000 0.500000 0.500000
0.035732 0.500000 0.500000
0.174766 0.500000 0.500000
0.332666 0.500000 0.500000
0.500000 0.500000 0.500000
0.645508 0.478174 0.478174
0.796094 0.466875 0.454922
0.929082 0.457203 0.434369
1.000000 0.449500 0.418000
0.000000 0.645508 0.500000
0.013906 0.645508 0.478174
0.152939 0.645508 0.478174
0.270680 0.645508 0.470588
0.458094 0.645508 0.479959
0.645508 0.645508 0.478174
0.796094 0.634209 0.454922
0.929082 0.624537 0.434369
1.000000 0.616834 0.418000
0.013281 0.792109 0.505339
0.013281 0.792109 0.472283
0.067569 0.792109 0.440178
0.244417 0.792109 0.449020
0.431831 0.792109 0.458391
0.583700 0.792109 0.415894
0.796094 0.792109 0.454922
0.929082 0.782438 0.434369
1.000000 0.774734 0.418000
0.025371 0.921471 0.517025
0.025371 0.921471 0.476905
0.044840 0.921471 0.421108
0.221688 0.921471 0.429951
0.409102 0.921471 0.439321
0.532422 0.921471 0.378657
0.738746 0.921471 0.378657
0.929082 0.921471 0.434369
1.000000 0.913768 0.418000
0.035000 1.000000 0.526333
0.035000 1.000000 0.481938
0.035000 1.000000 0.410731
0.203586 1.000000 0.414763
0.391000 1.000000 0.424133
0.491583 1.000000 0.349000
0.697906 1.000000 0.349000
0.879576 1.000000 0.349000
1.000000 1.000000 0.418000
0.000000 0.000000 0.645508
0.096289 0.000000 0.645508
0.217187 0.000000 0.645508
0.354492 0.000000 0.645508
0.500000 0.000000 0.645508
0.645508 0.000000 0.645508
0.796094 0.009297 0.642852
0.929082 0.017760 0.640434
1.000000 0.024500 0.638508
0.000000 0.096289 0.645508
0.013906 0.013906 0.645508
0.152939 0.013906 0.645508
0.310840 0.013906 0.645508
0.478174 0.013906 0.645508
0.645508 0.013906 0.645508
0.796094 0.009297 0.623594
0.929082 0.017760 0.609642
1.000000 0.024500 0.600737
0.000000 0.217187 0.645508
0.013906 0.152939 0.645508
0.152939 0.152939 0.645508
0.310840 0.152939 0.645508
0.478174 0.152939 0.645508
0.645508 0.152939 0.645508
0.796094 0.141641 0.622256
0.929082 0.131969 0.601703
1.000000 0.124266 0.585334
0.000000 0.354492 0.645508
0.013906 0.310840 0.645508
0.152939 0.310840 0.645508
0.310840 0.310840 0.645508
0.478174 0.310840 0.645508
0.645508 0.310840 0.645508
0.796094 0.299541 0.622256
0.929082 0.289869 0.601703
1.000000 0.282166 0.585334
0.000000 0.500000 0.645508
0.013906 0.478174 0.645508
0.152939 0.478174 0.645508
0.310840 0.478174 0.645508
0.478174 0.478174 0.645508
0.645508 0.478174 0.645508
0.796094 0.466875 0.622256
0.929082 0.457203 0.601703
1.000000 0.449500 0.585334
0.000000 0.645508 0.645508
0.013906 0.645508 0.645508
0.152939 0.645508 0.645508
0.310840 0.645508 0.645508
0.478174 0.645508 0.645508
0.645508 0.645508 0.645508
0.796094 0.634209 0.622256
0.929082 0.624537 0.601703
1.000000 0.616834 0.585334
0.013281 0.792109 0.642852
0.013281 0.792109 0.623594
0.145625 0.792109 0.622256
0.303525 0.792109 0.622256
0.431831 0.792109 0.614569
0.619245 0.792109 0.623940
0.796094 0.792109 0.622256
0.929082 0.782438 0.601703
1.000000 0.774734 0.585334
0.025371 0.921471 0.640434
0.025371 0.921471 0.609642
0.044840 0.921471 0.577287
0.221688 0.921471 0.586129
0.409102 0.921471 0.595500
0.596516 0.921471 0.604870
0.741869 0.921471 0.566071
0.929082 0.921471 0.601703
1.000000 0.913768 0.585334
0.035000 1.000000 0.638508
0.035000 1.000000 0.616114
0.035000 1.000000 0.565630
0.203586 1.000000 0.570941
0.391000 1.000000 0.580312
0.578414 1.000000 0.589682
0.701030 1.000000 0.536414
0.882700 1.000000 0.536414
1.000000 1.000000 0.585334
0.013281 0.009297 0.780156
0.109570 0.009297 0.780156
0.230469 0.009297 0.780156
0.367773 0.009297 0.780156
0.513281 0.009297 0.780156
0.658789 0.009297 0.780156
0.796094 0.009297 0.780156
0.929082 0.017760 0.777738
1.000000 0.024500 0.775813
0.013281 0.105586 0.780156
0.013281 0.009297 0.780156
0.151136 0.009297 0.780156
0.307699 0.009297 0.780156
0.473615 0.009297 0.780156
0.639531 0.009297 0.780156
0.796094 0.009297 0.780156
0.929082 0.017760 0.763321
1.000000 0.024500 0.752671
0.013281 0.226484 0.780156
0.013281 0.147152 0.780156
0.145625 0.141641 0.780156
0.303525 0.141641 0.780156
0.470859 0.141641 0.780156
0.638193 0.141641 0.780156
0.796094 0.141641 0.780156
0.929082 0.131969 0.759604
1.000000 0.124266 0.743234
0.013281 0.363789 0.780156
0.013281 0.303715 0.780156
0.145625 0.299541 0.780156
0.303525 0.299541 0.780156
0.470859 0.299541 0.780156
0.638193 0.299541 0.780156
0.796094 0.299541 0.780156
0.929082 0.289869 0.759604
1.000000 0.282166 0.743234
0.013281 0.509297 0.780156
0.013281 0.469631 0.780156
0.145625 0.466875 0.780156
0.303525 0.466875 0.780156
0.470859 0.466875 0.780156
0.638193 0.466875 0.780156
0.796094 0.466875 0.780156
0.929082 0.457203 0.759604
1.000000 0.449500 0.743234
0.013281 0.654805 0.780156
0.013281 0.635547 0.780156
0.145625 0.634209 0.780156
0.303525 0.634209 0.780156
0.470859 0.634209 0.780156
0.638193 0.634209 0.780156
0.796094 0.634209 0.780156
0.929082 0.624537 0.759604
1.000000 0.616834 0.743234
0.013281 0.792109 0.780156
0.013281 0.792109 0.780156
0.145625 0.792109 0.780156
0.303525 0.792109 0.780156
0.470859 0.792109 0.780156
0.638193 0.792109 0.780156
0.796094 0.792109 0.780156
0.929082 0.782438 0.759604
1.000000 0.774734 0.743234
0.025371 0.921471 0.777738
0.025371 0.921471 0.763321
0.139580 0.921471 0.759604
0.297480 0.921471 0.759604
0.464814 0.921471 0.759604
0.596516 0.921471 0.752244
0.773365 0.921471 0.761087
0.929082 0.921471 0.759604
1.000000 0.913768 0.743234
0.035000 1.000000 0.775812
0.035000 1.000000 0.752671
0.134766 1.000000 0.743234
0.292666 1.000000 0.743234
0.391000 1.000000 0.727685
0.578414 1.000000 0.737056
0.755263 1.000000 0.745899
0.885647 1.000000 0.713263
1.000000 1.000000 0.743234
0.025371 0.017760 0.898637
0.121660 0.017760 0.898637
0.242559 0.017760 0.898637
0.379863 0.017760 0.898637
0.525371 0.017760 0.898637
0.670879 0.017760 0.898637
0.808184 0.017760 0.898637
0.929082 0.017760 0.898637
1.000000 0.024500 0.896711
0.025371 0.114049 0.898637
0.025371 0.017760 0.898637
0.160687 0.017760 0.898637
0.314366 0.017760 0.898637
0.477227 0.017760 0.898637
0.640087 0.017760 0.898637
0.793766 0.017760 0.898637
0.929082 0.017760 0.898637
1.000000 0.024500 0.886451
0.025371 0.234947 0.898637
0.025371 0.153076 0.898637
0.139580 0.131969 0.898637
0.297480 0.131969 0.898637
0.464814 0.131969 0.898637
0.632148 0.131969 0.898637
0.790049 0.131969 0.898637
0.929082 0.131969 0.898637
1.000000 0.124266 0.882268
0.025371 0.372252 0.898637
0.025371 0.306755 0.898637
0.139580 0.289869 0.898637
0.297480 0.289869 0.898637
0.464814 0.289869 0.898637
0.632148 0.289869 0.898637
0.790049 0.289869 0.898637
0.929082 0.289869 0.898637
1.000000 0.282166 0.882268
0.025371 0.517760 0.898637
0.025371 0.469615 0.898637
0.139580 0.457203 0.898637
0.297480 0.457203 0.898637
0.464814 0.457203 0.898637
0.632148 0.457203 0.898637
0.790049 0.457203 0.898637
0.929082 0.457203 0.898637
1.000000 0.449500 0.882268
0.025371 0.663268 0.898637
0.025371 0.632476 0.898637
0.139580 0.624537 0.898637
0.297480 0.624537 0.898637
0.464814 0.624537 0.898637
0.632148 0.624537 0.898637
0.790049 0.624537 0.898637
0.929082 0.624537 0.898637
1.000000 0.616834 0.882268
0.025371 0.800572 0.898637
0.025371 0.786155 0.898637
0.139580 0.782438 0.898637
0.297480 0.782438 0.898637
0.464814 0.782438 0.898637
0.632148 0.782438 0.898637
0.790049 0.782438 0.898637
0.929082 0.782438 0.898637
1.000000 0.774734 0.882268
0.025371 0.921471 0.898637
0.025371 0.921471 0.898637
0.139580 0.921471 0.898637
0.297480 0.921471 0.898637
0.464814 0.921471 0.898637
0.632148 0.921471 0.898637
0.790049 0.921471 0.898637
0.929082 0.921471 0.898637
1.000000 0.913768 0.882268
0.035000 1.000000 0.896711
0.035000 1.000000 0.886451
0.134766 1.000000 0.882268
0.292666 1.000000 0.882268
0.460000 1.000000 0.882268
0.627334 1.000000 0.882268
0.755263 1.000000 0.875663
0.910980 1.000000 0.883449
1.000000 1.000000 0.882268
0.035000 0.024500 0.993000
0.131289 0.024500 0.993000
0.252187 0.024500 0.993000
0.389492 0.024500 0.993000
0.535000 0.024500 0.993000
0.680508 0.024500 0.993000
0.817813 0.024500 0.993000
0.938711 0.024500 0.993000
1.000000 0.024500 0.993000
0.035000 0.120789 0.993000
0.035000 0.024500 0.993000
0.168780 0.024500 0.993000
0.320714 0.024500 0.993000
0.481726 0.024500 0.993000
0.642737 0.024500 0.993000
0.794671 0.024500 0.993000
0.928451 0.024500 0.993000
1.000000 0.024500 0.993000
0.035000 0.241687 0.993000
0.035000 0.158280 0.993000
0.134766 0.124266 0.993000
0.292666 0.124266 0.993000
0.460000 0.124266 0.993000
0.627334 0.124266 0.993000
0.785234 0.124266 0.993000
0.924268 0.124266 0.993000
1.000000 0.124266 0.993000
0.035000 0.378992 0.993000
0.035000 0.310214 0.993000
0.134766 0.282166 0.993000
0.292666 0.282166 0.993000
0.460000 0.282166 0.993000
0.627334 0.282166 0.993000
0.785234 0.282166 0.993000
0.924268 0.282166 0.993000
1.000000 0.282166 0.993000
0.035000 0.524500 0.993000
0.035000 0.471226 0.993000
0.134766 0.449500 0.993000
0.292666 0.449500 0.993000
0.460000 0.449500 0.993000
0.627334 0.449500 0.993000
0.785234 0.449500 0.993000
0.924268 0.449500 0.993000
1.000000 0.449500 0.993000
0.035000 0.670008 0.993000
0.035000 0.632237 0.993000
0.134766 0.616834 0.993000
0.292666 0.616834 0.993000
0.460000 0.616834 0.993000
0.627334 0.616834 0.993000
0.785234 0.616834 0.993000
0.924268 0.616834 0.993000
1.000000 0.616834 0.993000
0.035000 0.807313 0.993000
0.035000 0.784171 0.993000
0.134766 0.774734 0.993000
0.292666 0.774734 0.993000
0.460000 0.774734 0.993000
0.627334 0.774734 0.993000
0.785234 0.774734 0.993000
0.924268 0.774734 0.993000
1.000000 0.774734 0.993000
0.035000 0.928211 0.993000
0.035000 0.917951 0.993000
0.134766 0.913768 0.993000
0.292666 0.913768 0.993000
0.460000 0.913768 0.993000
0.627334 0.913768 0.993000
0.785234 0.913768 0.993000
0.924268 0.913768 0.993000
1.000000 0.913768 0.993000
0.035000 1.000000 0.993000
0.035000 1.000000 0.993000
0.134766 1.000000 0.993000
0.292666 1.000000 0.993000
0.460000 1.000000 0.993000
0.627334 1.000000 0.993000
0.785234 1.000000 0.993000
0.924268 1.000000 0.993000
1.000000 1.000000 0.993000
